src/assets/sidebarArrow.svg

<svg width="162" height="38" viewBox="0 0 162 38" fill="none" xmlns="http://www.w3.org/2000/svg">
<path d="M161 1V11C161 15.4183 157.418 19 153 19H89C84.5817 19 81 22.5817 81 27V37" stroke="white" stroke-width="2" stroke-linecap="round" stroke-linejoin="round"/>
<path d="M1 1V11C1 15.4183 4.58172 19 9 19H73C77.4183 19 81 22.5817 81 27V37M81 37L77.5 33.5M81 37L84.5 33.5" stroke="white" stroke-width="2" stroke-linecap="round" stroke-linejoin="round"/>
</svg>

<svg fill="none" viewBox="0 0 162 38" xmlns="http://www.w3.org/2000/svg"><path d="M161 1v10a8 8 0 0 1-8 8H89a8 8 0 0 0-8 8v10" stroke="#fff" stroke-linecap="round" stroke-linejoin="round" stroke-width="2"/><path d="M1 1v10a8 8 0 0 0 8 8h64a8 8 0 0 1 8 8v10m0 0-3.5-3.5M81 37l3.5-3.5" stroke="#fff" stroke-linecap="round" stroke-linejoin="round" stroke-width="2"/></svg>
